!!!COM: Bach, Johann Sebastian
!!!OPR: Joh. Seb. Bachs vierstimmige Choralges‰nge
!!!XEN: Four-part Chorales
!!!OTL: 91. Hilf, Herr Jesu, lass gelingen
!!!SCT: BWV 344
!!!SCA: Thematisch-systematisches Verzeichnis der musikalischen Werke Johann Sebastian Bach: Bach-Werke-Verzeichnis (Schmieder)
!!!YOR: Bach Gesellschaft Edition xxxix
!!!ENC: Steven Rasmussen
!!!CDT: 1685/3//-1750/7/28/
!!!OCY: Deutschland
!!!YEC: Copyright (c) 1994, 2000 Center for Computer Assisted Research in the Humanities
!!!YEM: Rights to all derivative editions reserved
!!!YEN: United States of America
**kern	**silbe	**kern	**silbe	**kern	**silbe	**kern	**silbe
*I:[BASSO]	*I:[BASSO]	*I:[TENORE]	*I:[TENORE]	*I:[ALTO]	*I:[ALTO]	*I:[SOPRANO]	*I:[SOPRANO]
*clefF4	*	*clefGv2	*	*clefG2	*	*clefG2	*
*k[b-]	*	*k[b-]	*	*k[b-]	*	*k[b-]	*
*d:	*	*d:	*	*d:	*	*d:	*
*M3/4	*	*M3/4	*	*M3/4	*	*M3/4	*
=1-	=1-	=1-	=1-	=1-	=1-	=1-	=1-
8GL	.	2B-	.	2d	.	2g	Hilf,
8AJ	.	.	.	.	.	.	.
4B-	.	.	.	.	.	.	.
4G	.	4B-	.	4d	.	4g	Herr
=2	=2	=2	=2	=2	=2	=2	=2
8F#L	Je-	4A	.	8dL	.	2dd	Je-
8EJ	.	.	.	8eJ	.	.	.
4D	.	8dL	.	4f#	.	.	.
.	.	8cJ	.	.	.	.	.
[4G	-su,	4B-	.	4g	.	4dd	-su,
=3	=3	=3	=3	=3	=3	=3	=3
4G]	.	4e-	.	2a	.	2cc	lass
4F#	lass	4d	.	.	.	.	.
4G	.	4d	.	8aL	.	4b-	ge-
.	.	.	.	8gJ	.	.	.
=4	=4	=4	=4	=4	=4	=4	=4
2D	.	2d	.	4g	.	2a	-lin-
.	.	.	.	8f#L	.	.	.
.	.	.	.	8eJ	.	.	.
4D;	.	4d;	.	4f#;	.	4a;	-gen,
=5	=5	=5	=5	=5	=5	=5	=5
4BB-	.	2f	.	2f	.	2dd	hilf,
4B-	.	.	.	.	.	.	.
4A	.	4f	.	4cc	.	4ff	das
=6	=6	=6	=6	=6	=6	=6	=6
4G	.	4g	.	4b-	.	2ee-	neu-
4A	.	4f	.	4cc	.	.	.
4B-	.	4f	.	8ccL	.	4dd	-e
.	.	.	.	8b-J	.	.	.
=7	=7	=7	=7	=7	=7	=7	=7
(4E-	.	(4g	.	2b-	.	2cc	Jahr
4F)	.	4.f)	.	.	.	.	.
4FF	.	.	.	4a	.	4cc	geht
.	.	8e-	.	.	.	.	.
=8	=8	=8	=8	=8	=8	=8	=8
2.BB-;	.	2.d;	.	2.f;	.	2.b-;	an,
=9	=9	=9	=9	=9	=9	=9	=9
4D	.	2d	.	2f#	.	2a	lass
4C	.	.	.	.	.	.	.
4BB-	.	4d	es	[4g	es	4b-	es
=10	=10	=10	=10	=10	=10	=10	=10
4AA	.	2e-	neu-	4g]	.	2cc	neu-
4GG	.	.	.	8f#L	neu-	.	.
.	.	.	.	8gJ	.	.	.
4FF#	.	8e-L	-e	[4a	-e	4cc	-e
.	.	8dJ	.	.	.	.	.
=11	=11	=11	=11	=11	=11	=11	=11
4GG	.	2d	Kr√§f-	4a]	.	2b-	Kr√§f-
4G	.	.	.	8gL	Kr√§f-	.	.
.	.	.	.	8f#J	.	.	.
4C	.	4e-	-te	[4g	-te	4cc	-te
=12	=12	=12	=12	=12	=12	=12	=12
2D	.	2d	brin-	4g]	.	2a	brin-
.	.	.	.	8f#L	brin-	.	.
.	.	.	.	8eJ	.	.	.
4D;	.	4d;	-gen,	4f#;	-gen,	4a;	-gen,
=13	=13	=13	=13	=13	=13	=13	=13
8DL	.	4A	.	8f#L	.	2dd	dass
8EJ	.	.	.	8gJ	.	.	.
4F#	.	8dL	.	4a	.	.	.
.	.	8cJ	.	.	.	.	.
4G	.	4B-	.	4g	.	4dd	auf's
=14	=14	=14	=14	=14	=14	=14	=14
4A	.	4c	.	4g	.	2cc	neu'
4D	.	4d	.	4f#	.	.	.
4G	.	4d	.	4g	.	4b-	ich
=15	=15	=15	=15	=15	=15	=15	=15
4C	.	8e-L	.	2g	.	2a	wan-
.	.	8d	.	.	.	.	.
4AA	.	8c	.	.	.	.	.
.	.	8e-J	.	.	.	.	.
4D	.	8dL	.	4f#	.	4a	-deln
.	.	8cJ	.	.	.	.	.
=16	=16	=16	=16	=16	=16	=16	=16
2.GG;	.	2.B-;	.	2.d;	.	2.g;	kann.
=17	=17	=17	=17	=17	=17	=17	=17
4GG	.	2d	.	2g	.	2b-	Neu-
4G	.	.	.	.	.	.	.
4F	.	4d	.	4g	.	4b-	-es
=18	=18	=18	=18	=18	=18	=18	=18
4EE-	.	2e-	.	2g	.	2b-	Gl√ºck
4E-	.	.	.	.	.	.	.
4D	.	4f	.	4b-	.	4b-	und
=19	=19	=19	=19	=19	=19	=19	=19
4CC	.	4e-	.	4b-	.	2ee-	neu-
4C	.	4c	.	4a	.	.	.
4BB-	.	4f	.	4b-	.	4dd	-es
=20	=20	=20	=20	=20	=20	=20	=20
2FF	.	2f	.	4b-	.	2cc	Le-
.	.	.	.	8aL	.	.	.
.	.	.	.	8gJ	.	.	.
4F;	.	4f;	.	4a;	.	4cc;	-ben
=21	=21	=21	=21	=21	=21	=21	=21
4F	.	2f	.	2a	.	2cc	wollst
4E-	.	.	.	.	.	.	.
4D	.	4f#	.	4a	.	4dd	du
=22	=22	=22	=22	=22	=22	=22	=22
4G	.	2d	.	2g	.	2b-	mir
4F	.	.	.	.	.	.	.
8E-L	.	8cL	.	4g	.	4cc	aus
8DJ	.	8dJ	.	.	.	.	.
=23	=23	=23	=23	=23	=23	=23	=23
4C	.	8e-L	.	2g	.	2a	Gna-
.	.	8d	.	.	.	.	.
4AA	.	8c	.	.	.	.	.
.	.	8e-J	.	.	.	.	.
4D	.	8dL	.	4f#	.	4a	-den
.	.	8cJ	.	.	.	.	.
=24	=24	=24	=24	=24	=24	=24	=24
2GG	.	2Bn	.	2d	.	2g	ge-
4GG;	.	4B;	.	4d;	.	4g;	-ben.
==|!	==|!	==|!	==|!	==|!	==|!	==|!	==|!
*-	*-	*-	*-	*-	*-	*-	*-
!!!RWG: Key is interpreted using the Humdrum key tool.
!!!URL-pdf: https://s9.imslp.org/files/imglnks/usimg/6/6b/IMSLP24489-PMLP09471-CCARH_Bach_Chorales.pdf#page=64 Musedata edition
!!!URL-pdf: https://s9.imslp.org/files/imglnks/usimg/7/7a/IMSLP04155-Bach_-_BGA_253-438.pdf#page=49 	Bach-Gesellschaft Ausgabe, Band 39 (pp.175-276) Leipzig: Breitkopf und H‰rtel, 1892. Plate B.W. XXXIX.
!!!END: 1994/06/27
!!!EMD: Converted from MuseData to Humdrum Dec 19, 2000, by Andreas Kornstaedt using muse2kern.
!!!EED: Craig Stuart Sapp
!!!EEV: 2024/03/31
!!!ONB: Some non-unicode characters
!!!filter-keyboard: satb2gs
